!!!OTL: MEIN MAEDCHEN WOHNT IM UNTERLAND
!!!ARE: Europa, Mitteleuropa, Deutschland
!!!SCT: F0231
!!!YEM: Copyright 1995, estate of Helmut Schaffrath.
**kern
*ICvox
*Ivox
*M3/4
*k[]
*C:
{8g
=1
8g
8e
4.a
8g
=2
8.g
16d
4.d}
{8e
=3
8f
8e
4d
4a
=4
2g
8r}
{8g
=5
8g
8e
4.cc
8cc
=6
8.b
16a
4.dd}
{8cc
=7
4.b
8g
8.b
16a
=8
2g
8r}
{8g
=9
8.g
16cc
8ee
8dd
8cc
8b
=10
8.b
16a
8dd
8cc
8b}
{8a
=11
4.g
8d
8.f
16e
=12
2c
8r}
==
!!!AGN: Liebes - Lied
!!!ONB: ESAC (Essen Associative Code) Database: FINK
!!!AMT: simple triple
!!!AIN: vox
!!!EED: Helmut Schaffrath
!!!EEV: 1.0
*-
